src/assets/svg/instagram.svg

<?xml version="1.0" encoding="UTF-8"?>
<svg width="24px" height="24px" viewBox="0 0 24 24" version="1.1" xmlns="http://www.w3.org/2000/svg" xmlns:xlink="http://www.w3.org/1999/xlink">
    <title>c1387044-5017-4ace-920d-f59408eceae7@1.00x</title>
    <g id="Iconography" stroke="none" stroke-width="1" fill="none" fill-rule="evenodd">
        <g id="1.-Primitives/Icons/2.-Foreground-Secondary/Instagram" fill="#0062C3">
            <path d="M12,0 C18.627417,0 24,5.372583 24,12 C24,18.627417 18.627417,24 12,24 C5.372583,24 0,18.627417 0,12 C0,5.372583 5.372583,0 12,0 Z M9.1125488,5.04920228 C7.99442276,5.10230949 7.00122699,5.35847373 6.17981037,6.17694968 C5.35839375,6.99542564 5.10540993,7.98884302 5.0491913,9.11034252 C4.9836029,10.2662055 4.9836029,13.7306705 5.0491913,14.8865335 C5.10228667,16.008033 5.35839375,17.0014504 6.17981037,17.8199264 C7.00122699,18.6384023 7.9912995,18.8945666 9.1125488,18.9507977 C10.2681539,19.0164008 13.7318461,19.0164008 14.8874512,18.9507977 C16.0087005,18.8976905 17.0018963,18.6415263 17.8201896,17.8199264 C18.638483,17.0014504 18.8945901,16.008033 18.9508087,14.8865335 C19.0163971,13.7306705 19.0163971,10.2693295 18.9508087,9.11346647 C18.8977133,7.99196698 18.6416062,6.99854959 17.8201896,6.18007364 C17.0018963,5.36159768 16.0087005,5.10543345 14.8874512,5.04920228 C13.7318461,4.98359924 10.2681539,4.98359924 9.1125488,5.04920228 Z M12.0015616,6.26129644 C13.0197434,6.26129644 15.2091467,6.18007364 16.1273843,6.5424523 C16.7395427,6.78612072 17.2111545,7.25783778 17.4578918,7.87325672 C17.8233129,8.79482316 17.7389849,10.981591 17.7389849,12 C17.7389849,13.018409 17.8233129,15.2083008 17.4578918,16.1267433 C17.2142777,16.7390383 16.7426659,17.2107553 16.1273843,17.4575477 C15.2060234,17.8230503 13.0197434,17.7387036 12.0015616,17.7387036 C10.9833798,17.7387036 8.79397658,17.8199264 7.87573898,17.4575477 C7.26358059,17.2138793 6.79196877,16.7421622 6.54523146,16.1267433 C6.17981037,15.2051768 6.26413832,13.018409 6.26413832,12 C6.26413832,10.981591 6.18293363,8.79169921 6.54523146,7.87325672 C6.78884551,7.26096173 7.26045733,6.78924467 7.87573898,6.5424523 C8.79709983,6.17694968 10.9833798,6.26129644 12.0015616,6.26129644 Z M12.0015616,8.41057682 C10.0151701,8.41057682 8.41293921,10.0131652 8.41293921,12 C8.41293921,13.9868348 10.0151701,15.5894232 12.0015616,15.5894232 C13.9879532,15.5894232 15.590184,13.9868348 15.590184,12 C15.590184,10.0131652 13.9879532,8.41057682 12.0015616,8.41057682 Z M12.0015616,9.66640634 C13.2883436,9.66640634 14.3346347,10.7129309 14.3346347,12 C14.3346347,13.2870691 13.2852203,14.3335937 12.0015616,14.3335937 C10.717903,14.3335937 9.66848857,13.2870691 9.66848857,12 C9.66848857,10.7129309 10.7147797,9.66640634 12.0015616,9.66640634 Z M15.7369771,7.4265313 C15.2747351,7.4265313 14.8999442,7.80140578 14.8999442,8.26375098 C14.8999442,8.72609617 15.2716118,9.10097066 15.7369771,9.10097066 C16.1992192,9.10097066 16.57401,8.72922013 16.57401,8.26375098 C16.57401,7.80140578 16.1992192,7.4265313 15.7369771,7.4265313 Z" id="Combined-Shape"></path>
        </g>
    </g>
</svg>

<svg width="24" height="24" xmlns="http://www.w3.org/2000/svg"><path d="M12 0c6.627 0 12 5.373 12 12s-5.373 12-12 12S0 18.627 0 12 5.373 0 12 0zM9.113 5.05C7.994 5.101 7 5.357 6.18 6.176c-.822.818-1.075 1.812-1.13 2.933-.066 1.156-.066 4.62 0 5.777.052 1.121.308 2.114 1.13 2.933.821.818 1.811 1.075 2.933 1.13 1.155.066 4.619.066 5.774 0 1.122-.052 2.115-.308 2.933-1.13.818-.819 1.075-1.812 1.13-2.933.066-1.156.066-4.618 0-5.774-.052-1.121-.308-2.114-1.13-2.933-.818-.818-1.811-1.075-2.933-1.13-1.155-.066-4.619-.066-5.774 0zm2.889 1.211c1.018 0 3.207-.08 4.125.281a2.362 2.362 0 011.33 1.331c.366.922.282 3.109.282 4.127 0 1.018.084 3.208-.281 4.127a2.362 2.362 0 01-1.33 1.33c-.922.366-3.108.282-4.126.282-1.019 0-3.208.08-4.126-.281a2.362 2.362 0 01-1.33-1.331c-.366-.922-.282-3.109-.282-4.127 0-1.018-.081-3.208.281-4.127a2.362 2.362 0 011.33-1.33c.922-.366 3.108-.282 4.127-.282zm0 2.15A3.583 3.583 0 008.412 12a3.583 3.583 0 003.59 3.59A3.583 3.583 0 0015.59 12a3.583 3.583 0 00-3.588-3.59zm0 1.255A2.336 2.336 0 0114.335 12a2.338 2.338 0 01-2.333 2.334A2.338 2.338 0 019.668 12a2.336 2.336 0 012.334-2.334zm3.735-2.24a.837.837 0 100 1.675.837.837 0 000-1.674z" /></svg>
